raw/symbols/uni.svg

<svg width="42" height="42" viewBox="0 0 42 42" fill="none" xmlns="http://www.w3.org/2000/svg">
<circle cx="21" cy="21" r="21" fill="#E7337A"/>
<path d="M17.6808 13.0612C17.3461 13.0134 17.3302 12.9975 17.4896 12.9816C17.7924 12.9339 18.4937 12.9975 18.9878 13.1089C20.1354 13.3794 21.1715 14.0794 22.2713 15.3045L22.5582 15.6386L22.9726 15.5749C24.7418 15.2886 26.5589 15.5113 28.0731 16.2114C28.4875 16.4023 29.141 16.7841 29.2207 16.8796C29.2525 16.9114 29.3004 17.1182 29.3322 17.3251C29.4438 18.0728 29.396 18.6297 29.1569 19.0593C29.0294 19.2979 29.0294 19.3615 29.1091 19.5684C29.1729 19.7275 29.3641 19.8388 29.5394 19.8388C29.922 19.8388 30.3205 19.2343 30.5117 18.391L30.5914 18.0569L30.7349 18.216C31.5478 19.1229 32.1853 20.3798 32.281 21.2707L32.3128 21.5094L32.1694 21.3026C31.9303 20.9366 31.7072 20.698 31.4043 20.4912C30.8624 20.1252 30.2886 20.0139 28.7744 19.9343C27.4036 19.8548 26.6226 19.7434 25.8575 19.4888C24.5505 19.0593 23.8811 18.5024 22.335 16.45C21.6497 15.5431 21.2193 15.0499 20.7889 14.6363C19.8485 13.7294 18.9081 13.2521 17.6808 13.0612Z" fill="#F3F3F3"/>
<path d="M29.5555 15.0804C29.5874 14.4758 29.6671 14.0781 29.8424 13.7121C29.9062 13.5689 29.9699 13.4417 29.9859 13.4417C30.0018 13.4417 29.9699 13.553 29.9221 13.6803C29.7946 14.0303 29.7787 14.5235 29.8584 15.0804C29.9699 15.7963 30.0178 15.8918 30.7828 16.6714C31.1335 17.0373 31.5479 17.4987 31.7073 17.6896L31.9782 18.0397L31.7073 17.7851C31.3726 17.4669 30.6075 16.8623 30.4322 16.7828C30.3206 16.7191 30.3047 16.7191 30.225 16.7987C30.1612 16.8623 30.1453 16.9578 30.1453 17.4192C30.1293 18.1351 30.0337 18.5806 29.7946 19.042C29.6671 19.2806 29.6512 19.2329 29.7627 18.9624C29.8424 18.7556 29.8584 18.6601 29.8584 17.976C29.8584 16.5918 29.699 16.2577 28.7267 15.7009C28.4876 15.5577 28.0732 15.3509 27.8341 15.2395C27.5791 15.1281 27.3878 15.0327 27.4038 15.0327C27.4356 15.0008 28.376 15.2713 28.7426 15.4304C29.3005 15.6531 29.3961 15.6691 29.4599 15.6531C29.5077 15.6054 29.5396 15.4781 29.5555 15.0804Z" fill="#F3F3F3"/>
<path d="M18.3348 17.4494C17.6654 16.5266 17.235 15.0947 17.3306 14.0287L17.3625 13.6946L17.5219 13.7264C17.8088 13.7741 18.3029 13.9651 18.542 14.1082C19.1796 14.4901 19.4665 15.0151 19.7374 16.3197C19.8171 16.7016 19.9287 17.1471 19.9765 17.2903C20.0562 17.5289 20.3591 18.0858 20.6141 18.4358C20.7894 18.6903 20.6778 18.8176 20.2794 18.7858C19.6737 18.7222 18.8608 18.1653 18.3348 17.4494Z" fill="#F3F3F3"/>
<path d="M28.7428 24.3718C25.5869 23.099 24.4712 22.0012 24.4712 20.1397C24.4712 19.8692 24.4871 19.6465 24.4871 19.6465C24.5031 19.6465 24.6146 19.7419 24.7581 19.8533C25.3957 20.3624 26.1129 20.5852 28.1053 20.8716C29.2688 21.0466 29.9383 21.1738 30.5439 21.3807C32.4726 22.0171 33.668 23.3217 33.9549 25.0877C34.0346 25.5968 33.9868 26.5674 33.8593 27.0765C33.7477 27.4742 33.4289 28.2061 33.3492 28.222C33.3333 28.222 33.3014 28.1425 33.3014 28.0152C33.2695 27.347 32.9348 26.7105 32.3769 26.2173C31.7075 25.6446 30.8468 25.215 28.7428 24.3718Z" fill="#F3F3F3"/>
<path d="M26.5109 24.8964C26.479 24.6577 26.3993 24.3554 26.3515 24.2282L26.2718 23.9895L26.4153 24.1645C26.6225 24.4032 26.7818 24.6895 26.9253 25.0873C27.0369 25.3896 27.0369 25.485 27.0369 25.9783C27.0369 26.4556 27.0209 26.5669 26.9253 26.8374C26.7659 27.267 26.5746 27.5693 26.2559 27.9034C25.6821 28.492 24.9329 28.8102 23.865 28.9534C23.6737 28.9694 23.1318 29.0171 22.6537 29.0489C21.4582 29.1125 20.6613 29.2398 19.944 29.4944C19.8484 29.5262 19.7528 29.558 19.7368 29.5421C19.7049 29.5103 20.199 29.2239 20.5975 29.033C21.1554 28.7625 21.7292 28.6193 22.9884 28.3966C23.61 28.3011 24.2476 28.1738 24.4069 28.1102C25.9849 27.617 26.7659 26.3919 26.5109 24.8964Z" fill="#F3F3F3"/>
<path d="M27.9612 27.4575C27.5468 26.5506 27.4511 25.6915 27.6743 24.88C27.7062 24.8005 27.738 24.7209 27.7699 24.7209C27.8018 24.7209 27.8974 24.7687 27.9931 24.8323C28.1843 24.9596 28.5828 25.1823 29.6029 25.7392C30.894 26.4392 31.6271 26.9802 32.1372 27.6007C32.5835 28.1416 32.8545 28.7621 32.982 29.5258C33.0617 29.9554 33.0138 30.9895 32.9023 31.4191C32.5516 32.7714 31.7547 33.8533 30.5911 34.4738C30.4158 34.5693 30.2723 34.6329 30.2564 34.6329C30.2405 34.6329 30.3042 34.4738 30.3998 34.2829C30.7824 33.4715 30.8302 32.6919 30.5433 31.8168C30.368 31.2759 30.0014 30.6236 29.2682 29.5258C28.3915 28.253 28.1843 27.9189 27.9612 27.4575Z" fill="#F3F3F3"/>
<path d="M16.0862 32.3268C17.2657 31.3404 18.7161 30.6403 20.055 30.4176C20.6288 30.3221 21.5851 30.354 22.1111 30.4972C22.9559 30.7199 23.721 31.1972 24.1194 31.7859C24.502 32.3586 24.6773 32.8518 24.8526 33.9496C24.9164 34.3792 24.9961 34.8247 25.012 34.9201C25.1395 35.4929 25.3945 35.9384 25.7133 36.177C26.2074 36.543 27.0681 36.5589 27.9129 36.2407C28.0564 36.193 28.1839 36.1452 28.1839 36.1611C28.2157 36.193 27.7854 36.4793 27.4985 36.6225C27.1 36.8294 26.7812 36.893 26.3509 36.893C25.5858 36.893 24.9323 36.4952 24.4063 35.6997C24.2948 35.5406 24.0716 35.0792 23.8803 34.6497C23.3225 33.361 23.0356 32.9791 22.3821 32.5496C21.8083 32.1836 21.0751 32.1041 20.5172 32.3745C19.784 32.7246 19.5928 33.6633 20.1028 34.236C20.31 34.4747 20.6925 34.6656 21.0113 34.7133C21.6011 34.7929 22.1111 34.3315 22.1111 33.7428C22.1111 33.361 21.9677 33.1382 21.5851 32.9632C21.0751 32.7405 20.5172 32.995 20.5332 33.4882C20.5332 33.6951 20.6288 33.8224 20.836 33.9178C20.9635 33.9815 20.9635 33.9815 20.8679 33.9655C20.4056 33.8701 20.2941 33.2973 20.6607 32.9314C21.107 32.4859 22.0474 32.6768 22.3661 33.2973C22.4937 33.5519 22.5096 34.061 22.398 34.3792C22.1271 35.0792 21.362 35.4452 20.581 35.2383C20.055 35.0952 19.8318 34.952 19.1943 34.2997C18.0786 33.1541 17.6482 32.9314 16.0543 32.6927L15.7515 32.645L16.0862 32.3268Z" fill="#F3F3F3"/>
<path fill-rule="evenodd" clip-rule="evenodd" d="M7.70328 6.7271C11.4171 11.2296 17.1392 18.2301 17.4261 18.6119C17.6651 18.9301 17.5695 19.2324 17.171 19.4551C16.9479 19.5824 16.4857 19.7097 16.2625 19.7097C16.0075 19.7097 15.7046 19.5824 15.4974 19.3756C15.354 19.2324 14.7324 18.3255 13.3297 16.1459C12.2618 14.4753 11.3533 13.0911 11.3374 13.0752C11.2736 13.0434 11.2736 13.0434 13.2182 16.5118C14.4455 18.6915 14.8439 19.4711 14.8439 19.5665C14.8439 19.7733 14.7802 19.8847 14.5252 20.1711C14.0948 20.6484 13.9035 21.1893 13.7601 22.319C13.6007 23.5759 13.1704 24.4668 11.943 25.9783C11.2258 26.8692 11.1142 27.0283 10.9389 27.3943C10.7157 27.8397 10.652 28.0943 10.6201 28.6671C10.5882 29.2717 10.652 29.6535 10.8273 30.2263C10.9867 30.7354 11.162 31.0695 11.5924 31.7218C11.959 32.2946 12.1821 32.7241 12.1821 32.8832C12.1821 33.0105 12.214 33.0105 12.7878 32.8832C14.1586 32.565 15.2902 32.0241 15.9119 31.3559C16.2944 30.9422 16.39 30.7195 16.39 30.1467C16.39 29.7808 16.3741 29.7012 16.2785 29.4785C16.1191 29.1285 15.8162 28.8421 15.1627 28.3966C14.302 27.8079 13.9354 27.3306 13.8398 26.6942C13.7601 26.1533 13.8557 25.7873 14.3339 24.785C14.828 23.7509 14.9555 23.3213 15.0352 22.2712C15.083 21.603 15.1627 21.3325 15.354 21.1257C15.5612 20.903 15.7365 20.8234 16.2306 20.7598C17.0435 20.6484 17.5695 20.4416 17.9839 20.0438C18.3505 19.7097 18.5099 19.3756 18.5258 18.8824L18.5418 18.5165L18.3346 18.2937C17.5854 17.4346 7.20917 6.04297 7.16135 6.04297C7.14541 6.04297 7.40044 6.34526 7.70328 6.7271ZM12.5965 29.3512C12.7719 29.0489 12.6762 28.6671 12.3893 28.4761C12.1184 28.3011 11.704 28.3807 11.704 28.6193C11.704 28.683 11.7358 28.7466 11.8315 28.7784C11.9749 28.858 11.9909 28.9375 11.8793 29.1126C11.7677 29.2876 11.7677 29.4467 11.9112 29.558C12.1343 29.733 12.4372 29.6376 12.5965 29.3512Z" fill="#F3F3F3"/>
<path fill-rule="evenodd" clip-rule="evenodd" d="M19.0524 20.982C18.6698 21.0934 18.3032 21.507 18.1917 21.9207C18.1279 22.1753 18.1598 22.6367 18.2714 22.7798C18.4467 23.0026 18.6061 23.0662 19.0524 23.0662C19.929 23.0662 20.6782 22.6844 20.7579 22.223C20.8375 21.8411 20.5028 21.3161 20.0406 21.0775C19.8015 20.9502 19.3074 20.9025 19.0524 20.982ZM20.0725 21.7775C20.2 21.5866 20.1522 21.3798 19.9131 21.2366C19.4827 20.9661 18.8292 21.1888 18.8292 21.6025C18.8292 21.8093 19.164 22.0321 19.4827 22.0321C19.6899 22.0321 19.9768 21.9048 20.0725 21.7775Z" fill="#F3F3F3"/>
</svg>

<svg xmlns="http://www.w3.org/2000/svg" width="42" height="42" fill="none"><circle cx="21" cy="21" r="21" fill="#E7337A"/><path fill="#F3F3F3" d="M17.68 13.061c-.334-.048-.35-.063-.19-.08.302-.047 1.004.017 1.498.128 1.147.27 2.184.97 3.283 2.196l.287.334.415-.064c1.769-.286 3.586-.064 5.1.636.415.191 1.068.573 1.148.669.032.031.08.238.111.445.112.748.064 1.305-.175 1.734-.128.239-.128.302-.048.51.064.159.255.27.43.27.383 0 .781-.605.973-1.448l.08-.334.143.159c.813.907 1.45 2.164 1.546 3.055l.032.238-.144-.206c-.239-.366-.462-.605-.765-.812-.542-.366-1.115-.477-2.63-.557-1.37-.08-2.151-.19-2.916-.445-1.308-.43-1.977-.987-3.523-3.039-.685-.907-1.116-1.4-1.546-1.814-.94-.907-1.88-1.384-3.108-1.575Z"/><path fill="#F3F3F3" d="M29.555 15.08c.032-.604.112-1.002.287-1.368.064-.143.128-.27.144-.27.016 0-.016.111-.064.238-.127.35-.143.844-.064 1.4.112.716.16.812.925 1.591.35.366.765.828.924 1.019l.271.35-.27-.255c-.335-.318-1.1-.923-1.276-1.002-.111-.064-.127-.064-.207.016-.064.063-.08.159-.08.62-.016.716-.111 1.162-.35 1.623-.128.239-.144.19-.032-.08.08-.206.095-.302.095-.986 0-1.384-.159-1.718-1.131-2.275-.24-.143-.654-.35-.893-.462-.255-.11-.446-.206-.43-.206.032-.032.972.238 1.339.397.558.223.653.24.717.223.048-.048.08-.175.095-.573ZM18.335 17.45c-.67-.923-1.1-2.355-1.004-3.421l.032-.334.159.031c.287.048.78.24 1.02.382.638.382.924.907 1.195 2.212.08.382.192.827.24.97.08.239.382.796.637 1.146.175.254.064.382-.335.35-.605-.064-1.418-.62-1.944-1.337ZM28.743 24.372c-3.156-1.273-4.272-2.37-4.272-4.232 0-.27.016-.494.016-.494.016 0 .128.096.271.207.638.51 1.355.732 3.347 1.019 1.164.175 1.833.302 2.439.509 1.929.636 3.124 1.94 3.41 3.707.08.509.033 1.48-.095 1.988-.111.398-.43 1.13-.51 1.146-.016 0-.048-.08-.048-.207-.032-.668-.366-1.305-.924-1.798-.67-.572-1.53-1.002-3.634-1.845ZM26.51 24.896a3.763 3.763 0 0 0-.159-.668l-.08-.239.144.175c.207.24.367.525.51.923.112.303.112.398.112.891 0 .478-.016.589-.112.86-.16.429-.35.731-.67 1.065-.573.589-1.322.907-2.39 1.05-.191.016-.733.064-1.211.096-1.196.064-1.993.19-2.71.445-.096.032-.191.064-.207.048-.032-.032.462-.318.86-.509.558-.27 1.132-.414 2.391-.636.622-.096 1.26-.223 1.419-.287 1.578-.493 2.359-1.718 2.104-3.214Z"/><path fill="#F3F3F3" d="M27.961 27.457c-.414-.906-.51-1.765-.287-2.577.032-.08.064-.16.096-.16s.127.049.223.112c.191.128.59.35 1.61.907 1.291.7 2.024 1.241 2.534 1.862.447.54.718 1.161.845 1.925.08.43.032 1.463-.08 1.893-.35 1.352-1.147 2.434-2.31 3.055-.176.095-.32.159-.336.159-.015 0 .048-.16.144-.35.382-.812.43-1.591.143-2.466-.175-.541-.542-1.193-1.275-2.291-.877-1.273-1.084-1.607-1.307-2.069ZM16.086 32.327c1.18-.987 2.63-1.687 3.969-1.91.574-.095 1.53-.063 2.056.08.845.223 1.61.7 2.008 1.289.383.573.558 1.066.734 2.164.063.43.143.875.159.97.128.573.383 1.018.701 1.257.494.366 1.355.382 2.2.064.143-.048.27-.096.27-.08.033.032-.398.318-.684.462a2.26 2.26 0 0 1-1.148.27c-.765 0-1.419-.398-1.945-1.193-.111-.16-.334-.62-.526-1.05-.557-1.289-.844-1.67-1.498-2.1-.574-.366-1.307-.446-1.865-.175-.733.35-.924 1.288-.414 1.861.207.239.59.43.908.477a.972.972 0 0 0 1.1-.97c0-.382-.143-.605-.526-.78-.51-.223-1.068.032-1.052.525 0 .207.096.334.303.43.128.063.128.063.032.047-.462-.095-.574-.668-.207-1.034.446-.445 1.386-.254 1.705.366.128.255.144.764.032 1.082-.27.7-1.036 1.066-1.817.86-.526-.144-.75-.287-1.387-.94-1.115-1.145-1.546-1.368-3.14-1.606l-.302-.048.334-.318Z"/><path fill="#F3F3F3" fill-rule="evenodd" d="M7.703 6.727c3.714 4.503 9.436 11.503 9.723 11.885.24.318.144.62-.255.843-.223.127-.685.255-.909.255-.255 0-.557-.128-.765-.334-.143-.144-.765-1.05-2.167-3.23a206.837 206.837 0 0 0-1.993-3.07c-.063-.033-.063-.033 1.881 3.436 1.227 2.18 1.626 2.96 1.626 3.055 0 .206-.064.318-.319.604-.43.477-.622 1.018-.765 2.148-.16 1.257-.59 2.148-1.817 3.66-.717.89-.829 1.05-1.004 1.415-.223.446-.287.7-.319 1.273-.032.605.032.986.207 1.56.16.508.335.843.765 1.495.367.573.59 1.002.59 1.161 0 .127.032.127.606 0 1.37-.318 2.502-.859 3.124-1.527.382-.414.478-.637.478-1.21 0-.365-.016-.445-.111-.668-.16-.35-.463-.636-1.116-1.081-.861-.59-1.228-1.066-1.323-1.703-.08-.54.016-.907.494-1.909.494-1.034.622-1.464.701-2.514.048-.668.128-.939.319-1.145.207-.223.383-.303.877-.366.813-.112 1.338-.318 1.753-.716.366-.334.526-.668.542-1.162l.016-.366-.207-.222c-.75-.86-11.126-12.251-11.174-12.251-.016 0 .24.302.542.684Zm4.894 22.624a.656.656 0 0 0-.208-.875c-.27-.175-.685-.095-.685.143 0 .064.032.128.127.16.144.079.16.159.048.334-.111.175-.111.334.032.445.223.175.526.08.686-.207ZM19.052 20.982c-.382.111-.749.525-.86.939-.064.254-.032.716.08.859.175.223.334.286.78.286.877 0 1.626-.382 1.706-.843.08-.382-.255-.907-.717-1.145-.24-.128-.734-.175-.989-.096Zm1.02.796c.128-.191.08-.398-.159-.541-.43-.27-1.084-.048-1.084.366 0 .206.335.43.654.43.207 0 .494-.128.59-.256Z" clip-rule="evenodd"/></svg>
